packages/ui-icons/svg/Line/files-fair-use.svg

<svg viewBox="0 0 1920 1920" version="1.1" xmlns="http://www.w3.org/2000/svg">
    <path d="M960,0 C1489.35529,0 1920,430.644706 1920,960 C1920,1489.35529 1489.35529,1920 960,1920 C430.644706,1920 0,1489.35529 0,960 C0,430.644706 430.644706,0 960,0 Z M960,112.941176 C492.875294,112.941176 112.941176,492.875294 112.941176,960 C112.941176,1427.12471 492.875294,1807.05882 960,1807.05882 C1427.12471,1807.05882 1807.05882,1427.12471 1807.05882,960 C1807.05882,492.875294 1427.12471,112.941176 960,112.941176 Z M1113,721 L1113,805.047059 L893.111732,805.047059 L893.111732,910.552941 L1083.50279,910.552941 L1083.50279,988.341176 L893.111732,988.341176 L893.111732,1177 L793,1177 L793,721 L1113,721 Z" stroke="#979797" stroke-width="1" fill-rule="evenodd"/>
</svg>

<svg viewBox="0 0 1920 1920" xmlns="http://www.w3.org/2000/svg">
    <path d="M960 0c529.355 0 960 430.645 960 960s-430.645 960-960 960S0 1489.355 0 960 430.645 0 960 0Zm0 112.941c-467.125 0-847.059 379.934-847.059 847.059 0 467.125 379.934 847.059 847.059 847.059 467.125 0 847.059-379.934 847.059-847.059 0-467.125-379.934-847.059-847.059-847.059ZM1113 721v84.047H893.112v105.506h190.39v77.788h-190.39V1177H793V721h320Z" stroke="#979797" fill-rule="evenodd"/>
</svg>
